launcher/android/assets/skins/day/svg/image-export.svg

<svg enable-background="new 0 0 259.20 259.20" height="259.2" viewBox="0 0 259.2 259.2" width="259.2" xmlns="http://www.w3.org/2000/svg" xmlns:xlink="http://www.w3.org/1999/xlink"><linearGradient id="a" gradientTransform="matrix(-.452142113364 .891945911657 -.891945911657 -.452142113364 .938708126842 -.625930534557)" gradientUnits="objectBoundingBox" x1=".661586" x2="1.75959" y1="-.0246745" y2="-.0246745"><stop offset=".00930233" stop-color="#847bf5"/><stop offset="1" stop-color="#94f5c9"/></linearGradient><linearGradient id="b" gradientTransform="matrix(-.545951224804 .837816960997 -.837816960997 -.545951224804 .886797592602 -1.008177470307)" gradientUnits="objectBoundingBox" x1=".716586" x2="2.31461" y1="-.263792" y2="-.263792"><stop offset=".00465116" stop-color="#77e75d"/><stop offset="1" stop-color="#0a7007"/></linearGradient><linearGradient id="c" gradientTransform="matrix(-.379670691067 .925121703531 -.925121703531 -.379670691067 .989342742072 -.50988195929)" gradientUnits="objectBoundingBox" x1=".665619" x2="1.62879" y1=".0767546" y2=".0767546"><stop offset=".00930233" stop-color="#3e4dab"/><stop offset="1" stop-color="#7081bd"/></linearGradient><linearGradient id="d"><stop offset="0" stop-color="#bbd9c2"/><stop offset="1" stop-color="#e0d0d0"/></linearGradient><linearGradient id="e" gradientTransform="matrix(.444386861269 -.895834983427 .895834983427 .444386861269 -.702916150637 .861911089367)" gradientUnits="objectBoundingBox" x1=".343387" x2="1.38676" xlink:href="#d" y1=".997624" y2=".997624"/><linearGradient id="f" gradientTransform="matrix(.487741565366 .872988067166 -.872988067166 .487741565366 .234699360892 -.137719387606)" gradientUnits="objectBoundingBox" x1=".2347" x2="1.14344" y1=".131127" y2=".131127"><stop offset=".0139535" stop-color="#490202"/><stop offset=".367442" stop-color="#f80707"/><stop offset="1" stop-color="#310c05"/></linearGradient><linearGradient id="g" gradientTransform="matrix(.583577495014 .81205745321 -.81205745321 .583577495014 .245012295654 -.210093727361)" gradientUnits="objectBoundingBox" x1=".327356" x2="1.06409" y1=".13385" y2=".13385"><stop offset=".0186047" stop-color="#8a78a1" stop-opacity=".101961"/><stop offset=".372093" stop-color="#e0e3ea" stop-opacity=".815686"/><stop offset="1" stop-color="#050731" stop-opacity=".101961"/></linearGradient><linearGradient id="h" gradientTransform="matrix(-.856907127492 .515470828324 -.515470828324 -.856907127492 1.781181867627 -.075505764938)" gradientUnits="objectBoundingBox" x1=".901071" x2="1.78838" y1=".209472" y2=".209472"><stop offset=".0186047" stop-color="#133ed9" stop-opacity=".611765"/><stop offset=".372093" stop-color="#5a6fa1" stop-opacity=".384314"/><stop offset="1" stop-color="#050731" stop-opacity=".101961"/></linearGradient><linearGradient id="i" gradientTransform="matrix(.81373653273 -.581233907562 .581233907562 .81373653273 -.410020033024 .186453221068)" gradientUnits="objectBoundingBox" x1=".085903" x2="1.03616" xlink:href="#d" y1=".732959" y2=".732959"/><linearGradient id="j"><stop offset="0" stop-color="#bbd9c2" stop-opacity=".662745"/><stop offset="1" stop-color="#e0d0d0" stop-opacity=".662745"/></linearGradient><linearGradient id="k" gradientTransform="matrix(.77978574936 .626046471993 -.626046471993 .77978574936 .134657087829 .001757744834)" gradientUnits="objectBoundingBox" x1=".0648302" x2="1.31243" xlink:href="#j" y1=".192287" y2=".192287"/><linearGradient id="l" gradientTransform="matrix(.814513710208 -.580144306085 .580144306085 .814513710208 -.403717430418 .191433523096)" gradientUnits="objectBoundingBox" x1=".0975139" x2="1.02176" xlink:href="#j" y1=".727069" y2=".727069"/><linearGradient id="m"><stop offset=".00465116" stop-color="#380101"/><stop offset=".311628" stop-color="#150202"/><stop offset=".599998" stop-color="#150101"/><stop offset="1" stop-color="#621616"/></linearGradient><linearGradient id="n" gradientTransform="matrix(-.002106558489 -.999997781203 .999997781203 -.002106558489 -1.031905720404 2.054817764581)" gradientUnits="objectBoundingBox" x1=".509294" x2="2.59392" xlink:href="#m" y1="1.54228" y2="1.54228"/><linearGradient id="o" gradientTransform="matrix(-.002106558489 -.999997781203 .999997781203 -.002106558489 -1.031905720404 2.054817764581)" gradientUnits="objectBoundingBox" x1=".509294" x2="2.59392" y1="1.54228" y2="1.54228"><stop offset=".00465116" stop-color="#723711"/><stop offset=".172093" stop-color="#783a11"/><stop offset=".274419" stop-color="#c75f1c"/><stop offset=".432558" stop-color="#dc691f"/><stop offset=".516279" stop-color="#9c6a60"/><stop offset=".972093" stop-color="#936b6b"/></linearGradient><linearGradient id="p" gradientTransform="matrix(.999953282731 -.009666041376 .009666041376 .999953282731 -.004315566121 .000565348871)" gradientUnits="objectBoundingBox" x1=".0563287" x2="1.05502" xlink:href="#m" y1=".446739" y2=".446739"/><linearGradient id="q" gradientTransform="matrix(-.001962220059 -.999998074844 .999998074844 -.001962220059 -.809744061967 1.828913278247)" gradientUnits="objectBoundingBox" x1=".507792" x2="2.14494" xlink:href="#d" y1="1.31854" y2="1.31854"/><linearGradient id="r" gradientTransform="matrix(-.008130003158 -.999966950978 .999966950978 -.008130003158 -3.438453689121 4.490496232846)" gradientUnits="objectBoundingBox" x1=".507841" x2="7.40969" y1="3.95055" y2="3.95055"><stop offset=".367442" stop-color="#292c31" stop-opacity="0"/><stop offset=".488372" stop-color="#292c31" stop-opacity=".584314"/><stop offset=".623256" stop-color="#6b6c7a" stop-opacity="0"/></linearGradient><radialGradient id="s" cx="174.755" cy="145.63" gradientTransform="matrix(.999783497985 -.020807622578 .020807622578 .999783497985 -2.992375143815 3.667775488545)" gradientUnits="userSpaceOnUse" r="24.0155"><stop offset=".00465116" stop-color="#c0baba" stop-opacity=".360784"/><stop offset=".972093" stop-color="#936b6b" stop-opacity=".258824"/></radialGradient><radialGradient id="t" cx="119.295" cy="157.523" gradientTransform="matrix(.999937064028 -.01121909013 .01121909013 .999937064028 -1.759755352526 1.34829707461)" gradientUnits="userSpaceOnUse" r="26.1303"><stop offset=".00465116" stop-color="#f80f0f"/><stop offset=".972093" stop-color="#936b6b"/></radialGradient><linearGradient id="u" gradientTransform="matrix(-1 0 0 -1 2 1.000004)" gradientUnits="objectBoundingBox" x1="1" x2="2" y1=".500002" y2=".500002"><stop offset="0" stop-color="#293128"/><stop offset=".272524" stop-color="#1d8c19"/><stop offset=".525581" stop-color="#11e70b" stop-opacity=".996078"/><stop offset="1" stop-color="#97bd89"/></linearGradient><g stroke-linejoin="round"><g stroke-width=".2"><path d="m45.3622 78.4555 150.3748 60.1335-32.999 84.523-150.3747-60.133z" fill="url(#a)"/><path d="m41.3323 126.641 8.1853 13.816 9.4012 24.366 23.904 15.788 44.4652 17.781 36.758 8.949-10.05 10.836-97.8408-33.853-41.6242-17.604 14.2766-40.295z" fill="url(#b)"/><path d="m52.9709 109.252 13.7-12.7316-4.3503-7.4897-14.8733-7.8648-9.6011 13.4121z" fill="url(#c)"/></g><path d="m44.9666 76.3403 154.3684 61.7297-34.954 89.532-154.3683-61.73z" fill="none" stroke="url(#e)" stroke-width="7"/><path d="m160.866 60.1659 85.828 133.6221-75.928 47.5-85.828-133.622z" fill="url(#f)" stroke-width=".2"/><path d="m184.432 94.3808-38.912 7.8462-42.796 25.709 6.123 24.373 23.834 32.983 40.835-19.693 33.64-39.138z" fill="url(#g)" stroke-width=".2"/><path d="m191.245 97.5683-52.511 16.3547 22.642 45.967 14.698 1.448 30.752-37.863z" fill="url(#h)" stroke-width=".2"/><path d="m162.005 54.9306 89.729 139.6954-81.594 51.045-89.7295-139.695z" fill="none" stroke="url(#i)" stroke-width="2"/><path d="m155.971 226.458-76.1023-118.48 15.0778-9.4322-50.5219-20.2031-34.95414 89.5313z" fill="#f5f3ed" fill-opacity=".662745" stroke="url(#k)" stroke-width="2"/><path d="m161.553 55.349 89.729 139.695-81.594 51.045-89.7293-139.695z" fill="#f5f3ed" fill-opacity=".662745" stroke="url(#l)" stroke-width="7"/><path d="m46.0934 129.946 157.6826-.184 1.416 88.344-157.6828.184z" fill="url(#o)" stroke="url(#n)" stroke-linecap="round" stroke-width=".2"/><path d="m54.3452 138.86c.1787 11.149-1.0088 23.095 1.895 33.908 1.7201 6.406-5.0096 13.231-3.2895 19.636.6388 2.379 2.8769 12.234 4.2836 14.273 1.0921 1.584.1715 10.709 6.3645 3.563.3883-.448 7.2702 2.248 7.7017 2.668.4316.42-.0337-9.419.3075-8.925.3815.554 15.2245-.417 15.7682-.018.6878.504-13.3175 8.846-12.4715 8.938 8.1236.884 13.7922-1.503 16.2044-.911 5.8799 1.443 3.5525-3.239 9.4329-1.796.654.161 1.272.492 1.816.891.688.504 1.065 1.407 1.831 1.782.541.266 1.201-.001 1.802-.002.901-.001 1.802-.002 2.703-.003 3.003-.004 6.007-.007 9.01-.011 9.311-.011 23.098-1.811 32.409-1.822 15.921-.019 28.455 4.429 42.364.843" fill="none" stroke="url(#p)" stroke-linecap="round" stroke-width="25"/><path d="m42.432 126.381 165.792-.194 1.545 96.375-165.7926.194z" fill="none" stroke="url(#q)" stroke-width="7"/><path d="m67.2012 143.363 15.7737-6.712 22.9871.643 5.165 6.017 19.297 2.321 23.272-2.705 9.38-5.031 19.303 2.655 14.878.652 6.484 4.008-3.582 8.37-8.753 2.019-16.208.688-12.937-6.009-21.941 1.364-4.425-2.002-14.116 4.701-26.0073.7-6.2536-10.702-13.4513 4.032-6.3771 2.685-2.73-1.67z" fill="url(#r)" stroke-width=".2"/><path d="m192.556 151.342 6.047-7.074-19.758-8.375-5.001 3.462-5.996 8.112-16.634 5.78 16.457 1.188 20.326 1.468z" fill="url(#s)" stroke-width=".2"/><path d="m119.002 139.229c14.432-.016 26.261 8.159 26.423 18.263.162 10.103-11.405 18.307-25.837 18.324-14.431.017-26.2612-8.16-26.4232-18.263-.1619-10.103 11.4052-18.307 25.8372-18.324z" fill="url(#t)" stroke-linecap="round" stroke-width=".2"/><path d="m123.146 167.749-1.471-13.609 1.471-13.242 6.62-11.402 9.564-8.459 10.299-3.679 8.459-1.103.736 15.448 2.207 6.989 7.356.735 56.276-50.0228 1.471-5.885-.367-6.6208v-.3677l-5.15-5.5173-51.494-46.7127-4.414-1.1035v.3679l-4.414 1.8391-2.207 3.3103.368 18.3909-12.138 2.2068-13.241 5.5173-12.138 11.77-7.724 17.2876-4.414 22.4369 1.839 29.425 6.253 19.494z" fill="url(#u)" stroke="#000" stroke-width="4"/><path d="m122.962 167.504 6.866 7.234 6.62 5.762 6.253 2.697h3.556l2.084-2.574.368-3.801-1.962-6.253-3.923-4.659-5.395-6.13-5.394-7.724-2.33-7.602-1.348-10.054 1.103-4.291-7.111 10.544-1.226 16.675z" fill="url(#u)" stroke="#000" stroke-width="4"/></g></svg>

﻿<?xml version="1.0" encoding="utf-8"?>
<!DOCTYPE svg PUBLIC "-//W3C//DTD SVG 1.1//EN" "http://www.w3.org/Graphics/SVG/1.1/DTD/svg11.dtd">
<svg xmlns="http://www.w3.org/2000/svg" xmlns:xlink="http://www.w3.org/1999/xlink" version="1.1" baseProfile="full" width="259.2" height="259.2" viewBox="0 0 259.20 259.20" enable-background="new 0 0 259.20 259.20" xml:space="preserve">
	<linearGradient id="SVGID_Fill1_" gradientUnits="objectBoundingBox" x1="0.661586" y1="-0.0246745" x2="1.75959" y2="-0.0246745" gradientTransform="rotate(116.881203 0.661586 -0.024675)">
		<stop offset="0.00930233" stop-color="#847BF5" stop-opacity="1"/>
		<stop offset="1" stop-color="#94F5C9" stop-opacity="1"/>
	</linearGradient>
	<path fill="url(#SVGID_Fill1_)" stroke-width="0.2" stroke-linejoin="round" d="M 45.3622,78.4555L 195.737,138.589L 162.738,223.112L 12.3633,162.979L 45.3622,78.4555 Z "/>
	<linearGradient id="SVGID_Fill2_" gradientUnits="objectBoundingBox" x1="0.716586" y1="-0.263792" x2="2.31461" y2="-0.263792" gradientTransform="rotate(123.089691 0.716586 -0.263792)">
		<stop offset="0.00465116" stop-color="#77E75D" stop-opacity="1"/>
		<stop offset="1" stop-color="#0A7007" stop-opacity="1"/>
	</linearGradient>
	<path fill="url(#SVGID_Fill2_)" stroke-width="0.2" stroke-linejoin="round" d="M 41.3323,126.641L 49.5176,140.457L 58.9188,164.823L 82.8228,180.611L 127.288,198.392L 164.046,207.341L 153.996,218.177L 56.1552,184.324L 14.531,166.72L 28.8076,126.425L 41.3323,126.641 Z "/>
	<linearGradient id="SVGID_Fill3_" gradientUnits="objectBoundingBox" x1="0.665619" y1="0.0767546" x2="1.62879" y2="0.0767546" gradientTransform="rotate(112.313286 0.665619 0.076755)">
		<stop offset="0.00930233" stop-color="#3E4DAB" stop-opacity="1"/>
		<stop offset="1" stop-color="#7081BD" stop-opacity="1"/>
	</linearGradient>
	<path fill="url(#SVGID_Fill3_)" stroke-width="0.2" stroke-linejoin="round" d="M 52.9709,109.252L 66.6709,96.5204L 62.3206,89.0307L 47.4473,81.1659L 37.8462,94.578L 52.9709,109.252 Z "/>
	<linearGradient id="SVGID_Stroke1_" gradientUnits="objectBoundingBox" x1="0.343387" y1="0.997624" x2="1.38676" y2="0.997624" gradientTransform="rotate(-63.615883 0.343387 0.997624)">
		<stop offset="0" stop-color="#BBD9C2" stop-opacity="1"/>
		<stop offset="1" stop-color="#E0D0D0" stop-opacity="1"/>
	</linearGradient>
	<path fill="none" stroke-width="7" stroke-linejoin="round" stroke="url(#SVGID_Stroke1_)" d="M 44.9666,76.3403L 199.335,138.07L 164.381,227.602L 10.0127,165.872L 44.9666,76.3403 Z "/>
	<g>
		<linearGradient id="SVGID_Fill4_" gradientUnits="objectBoundingBox" x1="0.2347" y1="0.131127" x2="1.14344" y2="0.131127" gradientTransform="rotate(60.807751 0.234700 0.131127)">
			<stop offset="0.0139535" stop-color="#490202" stop-opacity="1"/>
			<stop offset="0.367442" stop-color="#F80707" stop-opacity="1"/>
			<stop offset="1" stop-color="#310C05" stop-opacity="1"/>
		</linearGradient>
		<path fill="url(#SVGID_Fill4_)" stroke-width="0.2" stroke-linejoin="round" d="M 160.866,60.1659L 246.694,193.788L 170.766,241.288L 84.938,107.666L 160.866,60.1659 Z "/>
		<linearGradient id="SVGID_Fill5_" gradientUnits="objectBoundingBox" x1="0.327356" y1="0.13385" x2="1.06409" y2="0.13385" gradientTransform="rotate(54.297440 0.327356 0.133850)">
			<stop offset="0.0186047" stop-color="#8A78A1" stop-opacity="0.101961"/>
			<stop offset="0.372093" stop-color="#E0E3EA" stop-opacity="0.815686"/>
			<stop offset="1" stop-color="#050731" stop-opacity="0.101961"/>
		</linearGradient>
		<path fill="url(#SVGID_Fill5_)" stroke-width="0.2" stroke-linejoin="round" d="M 184.432,94.3808L 145.52,102.227L 102.724,127.936L 108.847,152.309L 132.681,185.292L 173.516,165.599L 207.156,126.461L 184.432,94.3808 Z "/>
		<linearGradient id="SVGID_Fill6_" gradientUnits="objectBoundingBox" x1="0.901071" y1="0.209472" x2="1.78838" y2="0.209472" gradientTransform="rotate(148.971069 0.901071 0.209472)">
			<stop offset="0.0186047" stop-color="#133ED9" stop-opacity="0.611765"/>
			<stop offset="0.372093" stop-color="#5A6FA1" stop-opacity="0.384314"/>
			<stop offset="1" stop-color="#050731" stop-opacity="0.101961"/>
		</linearGradient>
		<path fill="url(#SVGID_Fill6_)" stroke-width="0.2" stroke-linejoin="round" d="M 191.245,97.5683L 138.734,113.923L 161.376,159.89L 176.074,161.338L 206.826,123.475L 191.245,97.5683 Z "/>
		<linearGradient id="SVGID_Stroke2_" gradientUnits="objectBoundingBox" x1="0.085903" y1="0.732959" x2="1.03616" y2="0.732959" gradientTransform="rotate(-35.537376 0.085903 0.732959)">
			<stop offset="0" stop-color="#BBD9C2" stop-opacity="1"/>
			<stop offset="1" stop-color="#E0D0D0" stop-opacity="1"/>
		</linearGradient>
		<path fill="none" stroke-width="2" stroke-linejoin="round" stroke="url(#SVGID_Stroke2_)" d="M 162.005,54.9306L 251.734,194.626L 170.14,245.671L 80.4105,105.976L 162.005,54.9306 Z "/>
	</g>
	<linearGradient id="SVGID_Stroke3_" gradientUnits="objectBoundingBox" x1="0.0648302" y1="0.192287" x2="1.31243" y2="0.192287" gradientTransform="rotate(38.759037 0.064830 0.192287)">
		<stop offset="0" stop-color="#BBD9C2" stop-opacity="0.662745"/>
		<stop offset="1" stop-color="#E0D0D0" stop-opacity="0.662745"/>
	</linearGradient>
	<path fill="#F5F3ED" fill-opacity="0.662745" stroke-width="2" stroke-linejoin="round" stroke="url(#SVGID_Stroke3_)" d="M 155.971,226.458L 79.8687,107.978L 94.9465,98.5458L 44.4246,78.3427L 9.47046,167.874L 155.971,226.458 Z "/>
	<linearGradient id="SVGID_Stroke4_" gradientUnits="objectBoundingBox" x1="0.0975139" y1="0.727069" x2="1.02176" y2="0.727069" gradientTransform="rotate(-35.460693 0.097514 0.727069)">
		<stop offset="0" stop-color="#BBD9C2" stop-opacity="0.662745"/>
		<stop offset="1" stop-color="#E0D0D0" stop-opacity="0.662745"/>
	</linearGradient>
	<path fill="#F5F3ED" fill-opacity="0.662745" stroke-width="7" stroke-linejoin="round" stroke="url(#SVGID_Stroke4_)" d="M 161.553,55.349L 251.282,195.044L 169.688,246.089L 79.9587,106.394L 161.553,55.349 Z "/>
	<linearGradient id="SVGID_Stroke5_" gradientUnits="objectBoundingBox" x1="0.509294" y1="1.54228" x2="2.59392" y2="1.54228" gradientTransform="rotate(269.879303 0.509294 1.542276)">
		<stop offset="0.00465116" stop-color="#380101" stop-opacity="1"/>
		<stop offset="0.311628" stop-color="#150202" stop-opacity="1"/>
		<stop offset="0.599998" stop-color="#150101" stop-opacity="1"/>
		<stop offset="1" stop-color="#621616" stop-opacity="1"/>
	</linearGradient>
	<linearGradient id="SVGID_Fill7_" gradientUnits="objectBoundingBox" x1="0.509294" y1="1.54228" x2="2.59392" y2="1.54228" gradientTransform="rotate(269.879303 0.509294 1.542276)">
		<stop offset="0.00465116" stop-color="#723711" stop-opacity="1"/>
		<stop offset="0.172093" stop-color="#783A11" stop-opacity="1"/>
		<stop offset="0.274419" stop-color="#C75F1C" stop-opacity="1"/>
		<stop offset="0.432558" stop-color="#DC691F" stop-opacity="1"/>
		<stop offset="0.516279" stop-color="#9C6A60" stop-opacity="1"/>
		<stop offset="0.972093" stop-color="#936B6B" stop-opacity="1"/>
	</linearGradient>
	<path fill="url(#SVGID_Fill7_)" stroke-width="0.2" stroke-linecap="round" stroke-linejoin="round" stroke="url(#SVGID_Stroke5_)" d="M 46.0934,129.946L 203.776,129.762L 205.192,218.106L 47.5092,218.29L 46.0934,129.946 Z "/>
	<linearGradient id="SVGID_Stroke6_" gradientUnits="objectBoundingBox" x1="0.0563287" y1="0.446739" x2="1.05502" y2="0.446739" gradientTransform="rotate(-0.553832 0.056329 0.446739)">
		<stop offset="0.00465116" stop-color="#380101" stop-opacity="1"/>
		<stop offset="0.311628" stop-color="#150202" stop-opacity="1"/>
		<stop offset="0.599998" stop-color="#150101" stop-opacity="1"/>
		<stop offset="1" stop-color="#621616" stop-opacity="1"/>
	</linearGradient>
	<path fill="none" stroke-width="25" stroke-linecap="round" stroke-linejoin="round" stroke="url(#SVGID_Stroke6_)" d="M 54.3452,138.86C 54.5239,150.009 53.3364,161.955 56.2402,172.768C 57.9603,179.174 51.2306,185.999 52.9507,192.404C 53.5895,194.783 55.8276,204.638 57.2343,206.677C 58.3264,208.261 57.4058,217.386 63.5988,210.24C 63.9871,209.792 70.869,212.488 71.3005,212.908C 71.7321,213.328 71.2668,203.489 71.608,203.983C 71.9895,204.537 86.8325,203.566 87.3762,203.965C 88.064,204.469 74.0587,212.811 74.9047,212.903C 83.0283,213.787 88.6969,211.4 91.1091,211.992C 96.989,213.435 94.6616,208.753 100.542,210.196C 101.196,210.357 101.814,210.688 102.358,211.087C 103.046,211.591 103.423,212.494 104.189,212.869C 104.73,213.135 105.39,212.868 105.991,212.867C 106.892,212.866 107.793,212.865 108.694,212.864C 111.697,212.86 114.701,212.857 117.704,212.853C 127.015,212.842 140.802,211.042 150.113,211.031C 166.034,211.012 178.568,215.46 192.477,211.874"/>
	<linearGradient id="SVGID_Stroke7_" gradientUnits="objectBoundingBox" x1="0.507792" y1="1.31854" x2="2.14494" y2="1.31854" gradientTransform="rotate(269.887573 0.507792 1.318535)">
		<stop offset="0" stop-color="#BBD9C2" stop-opacity="1"/>
		<stop offset="1" stop-color="#E0D0D0" stop-opacity="1"/>
	</linearGradient>
	<path fill="none" stroke-width="7" stroke-linejoin="round" stroke="url(#SVGID_Stroke7_)" d="M 42.432,126.381L 208.224,126.187L 209.769,222.562L 43.9764,222.756L 42.432,126.381 Z "/>
	<linearGradient id="SVGID_Fill8_" gradientUnits="objectBoundingBox" x1="0.507841" y1="3.95055" x2="7.40969" y2="3.95055" gradientTransform="rotate(269.534180 0.507841 3.950554)">
		<stop offset="0.367442" stop-color="#292C31" stop-opacity="0"/>
		<stop offset="0.488372" stop-color="#292C31" stop-opacity="0.584314"/>
		<stop offset="0.623256" stop-color="#6B6C7A" stop-opacity="0"/>
	</linearGradient>
	<path fill="url(#SVGID_Fill8_)" stroke-width="0.2" stroke-linejoin="round" d="M 67.2012,143.363L 82.9749,136.651L 105.962,137.294L 111.127,143.311L 130.424,145.632L 153.696,142.927L 163.076,137.896L 182.379,140.551L 197.257,141.203L 203.741,145.211L 200.159,153.581L 191.406,155.6L 175.198,156.288L 162.261,150.279L 140.32,151.643L 135.895,149.641L 121.779,154.342L 95.7717,155.042L 89.5181,144.34L 76.0668,148.372L 69.6897,151.057L 66.9597,149.387L 67.2012,143.363 Z "/>
	<radialGradient id="SVGID_Fill9_" cx="174.755" cy="145.63" r="24.0155" gradientUnits="userSpaceOnUse" gradientTransform="rotate(-1.192275 174.755493 145.629807)">
		<stop offset="0.00465116" stop-color="#C0BABA" stop-opacity="0.360784"/>
		<stop offset="0.972093" stop-color="#936B6B" stop-opacity="0.258824"/>
	</radialGradient>
	<path fill="url(#SVGID_Fill9_)" stroke-width="0.2" stroke-linejoin="round" d="M 192.556,151.342L 198.603,144.268L 178.845,135.893L 173.844,139.355L 167.848,147.467L 151.214,153.247L 167.671,154.435L 187.997,155.903L 192.556,151.342 Z "/>
	<radialGradient id="SVGID_Fill10_" cx="119.295" cy="157.523" r="26.1303" gradientUnits="userSpaceOnUse" gradientTransform="rotate(-0.642820 119.295166 157.522873)">
		<stop offset="0.00465116" stop-color="#F80F0F" stop-opacity="1"/>
		<stop offset="0.972093" stop-color="#936B6B" stop-opacity="1"/>
	</radialGradient>
	<path fill="url(#SVGID_Fill10_)" stroke-width="0.2" stroke-linecap="round" stroke-linejoin="round" d="M 119.002,139.229C 133.434,139.213 145.263,147.388 145.425,157.492C 145.587,167.595 134.02,175.799 119.588,175.816C 105.157,175.833 93.3268,167.656 93.1648,157.553C 93.0029,147.45 104.57,139.246 119.002,139.229 Z "/>
	<g>
		<linearGradient id="SVGID_Fill11_" gradientUnits="objectBoundingBox" x1="1" y1="0.500002" x2="2" y2="0.500002" gradientTransform="rotate(180.000000 1.000000 0.500002)">
			<stop offset="0" stop-color="#293128" stop-opacity="1"/>
			<stop offset="0.272524" stop-color="#1D8C19" stop-opacity="1"/>
			<stop offset="0.525581" stop-color="#11E70B" stop-opacity="0.996078"/>
			<stop offset="1" stop-color="#97BD89" stop-opacity="1"/>
		</linearGradient>
		<path fill="url(#SVGID_Fill11_)" stroke-width="4" stroke-linejoin="round" stroke="#000000" stroke-opacity="1" d="M 123.146,167.749L 121.675,154.14L 123.146,140.898L 129.766,129.496L 139.33,121.037L 149.629,117.358L 158.088,116.255L 158.824,131.703L 161.031,138.692L 168.387,139.427L 224.663,89.4042L 226.134,83.5192L 225.767,76.8984L 225.767,76.5307L 220.617,71.0134L 169.123,24.3007L 164.709,23.1972L 164.709,23.5651L 160.295,25.4042L 158.088,28.7145L 158.456,47.1054L 146.318,49.3122L 133.077,54.8295L 120.939,66.5995L 113.215,83.8871L 108.801,106.324L 110.64,135.749L 116.893,155.243L 123.146,167.749 Z "/>
		<linearGradient id="SVGID_Fill12_" gradientUnits="objectBoundingBox" x1="1" y1="0.500002" x2="2" y2="0.500002" gradientTransform="rotate(180.000000 1.000000 0.500002)">
			<stop offset="0" stop-color="#293128" stop-opacity="1"/>
			<stop offset="0.272524" stop-color="#1D8C19" stop-opacity="1"/>
			<stop offset="0.525581" stop-color="#11E70B" stop-opacity="0.996078"/>
			<stop offset="1" stop-color="#97BD89" stop-opacity="1"/>
		</linearGradient>
		<path fill="url(#SVGID_Fill12_)" stroke-width="4" stroke-linejoin="round" stroke="#000000" stroke-opacity="1" d="M 122.962,167.504L 129.828,174.738L 136.448,180.5L 142.701,183.197L 146.257,183.197L 148.341,180.623L 148.709,176.822L 146.747,170.569L 142.824,165.91L 137.429,159.78L 132.035,152.056L 129.705,144.454L 128.357,134.4L 129.46,130.109L 122.349,140.653L 121.123,157.328L 122.962,167.504 Z "/>
	</g>
</svg>
